X:24
T:Estudio #6 
C:Fernando Sor 
N:Arranged by John Mock
L:1/8
Q:1/4=120
M:4/4
K:D
z7/1A | f3f e3e | d3f A3A | B3B e3d | d3c e3A | f3f e3e | d3d ^d3d | e3B c3c | 
d4 z3f | e3e ^d3d | e3e c3c | d3d B3e | d4 c3e | e3e =f3e | f3f B3^B | c3c d3B | 
c4 z3a | a3a ^c3c | B3B f3f | g3g _c3c | A3A e3e | ^f3d c3e | d3e ^f3e | d3d e3e | 
c7/1A | f3f e3e | d3f A3d | B3B e3d | d3c e3A | f3g/f/ e3e/e/ | d4 e3f/e/ | d3d c3c | 
[d4F4] z4 | z8 | 
 

